src/icons/eye-close.svg

<svg width="24" height="24" viewBox="0 0 24 24" fill="none" xmlns="http://www.w3.org/2000/svg">
<path d="M2.69949 10.1458C2.28166 9.43201 2 8.6684 2 8H4C4 8.16493 4.09334 8.56799 4.42551 9.13545C4.74258 9.6771 5.23279 10.2905 5.90252 10.8672C7.23352 12.0134 9.25547 13 12 13C14.7445 13 16.7665 12.0134 18.0975 10.8672C18.7672 10.2905 19.2574 9.6771 19.5745 9.13545C19.9067 8.56799 20 8.16493 20 8H22C22 8.6684 21.7183 9.43201 21.3005 10.1458C21.2228 10.2786 21.1385 10.4128 21.0478 10.5478L23 12.5L21.5 14L19.6565 12.1565C19.574 12.2326 19.4893 12.308 19.4025 12.3828C18.8233 12.8816 18.1466 13.3494 17.3738 13.7476L18.5 16L16.5 17L15.2825 14.5649C14.5763 14.7613 13.8153 14.8993 13 14.962V18H11V14.962C10.1847 14.8993 9.42367 14.7613 8.71753 14.5649L7.5 17L5.5 16L6.62619 13.7476C5.85339 13.3494 5.17671 12.8816 4.59748 12.3828C4.51069 12.308 4.42603 12.2326 4.34352 12.1565L2.5 14L1 12.5L2.95223 10.5478C2.86149 10.4128 2.77723 10.2786 2.69949 10.1458Z" fill="black"/>
</svg>

<svg xmlns="http://www.w3.org/2000/svg" width="24" height="24" fill="none"><path fill="currentColor" d="M2.7 10.146C2.281 9.432 2 8.668 2 8h2c0 .165.093.568.426 1.135a7 7 0 0 0 1.477 1.732C7.233 12.013 9.255 13 12 13s4.767-.987 6.098-2.133a7 7 0 0 0 1.477-1.732C19.907 8.568 20 8.165 20 8h2c0 .668-.282 1.432-.7 2.146a8 8 0 0 1-.252.402L23 12.5 21.5 14l-1.843-1.844a10.4 10.4 0 0 1-2.283 1.591L18.5 16l-2 1-1.217-2.435c-.707.196-1.468.334-2.283.397V18h-2v-3.038c-.815-.063-1.576-.2-2.282-.397L7.5 17l-2-1 1.126-2.252a10.4 10.4 0 0 1-2.282-1.591L2.5 14 1 12.5l1.952-1.952a8 8 0 0 1-.253-.402"/></svg>
